src/svg/thermometer-three-quarters.svg

<svg height="1000" width="500.0" xmlns="http://www.w3.org/2000/svg">
    <path d="m375 750c0 69-56 125-125 125s-125-56-125-125c0-46.3 25.1-86.6 62.5-108.2v-329.3c0-34.5 28-62.5 62.5-62.5s62.5 28 62.5 62.5v329.3c37.4 21.6 62.5 61.9 62.5 108.2z m62.5-165.3c38.9 44 62.5 101.9 62.5 165.3 0 138.1-111.9 250-250 250-0.6 0-1.2 0-1.8 0-137.3-1-248.9-114-248.2-251.3 0.3-62.9 23.9-120.3 62.5-164v-397.2c0-103.6 83.9-187.5 187.5-187.5s187.5 83.9 187.5 187.5v397.2z m-31.2 165.3c0-67.1-37.9-101.9-62.5-129.9v-432.6c0-51.7-42.1-93.7-93.8-93.7s-93.7 42-93.7 93.7v432.6c-24.9 28.2-62.2 62.7-62.5 129.1-0.5 85.7 69.4 156.5 155.1 157l1.1 0c86.2 0 156.3-70 156.3-156.2z" />
  </svg>

<svg height="1000" width="500" xmlns="http://www.w3.org/2000/svg"><path d="M375 750c0 69 -56 125 -125 125S125 819 125 750c0 -46.3 25.1 -86.6 62.5 -108.2V312.5c0 -34.5 28 -62.5 62.5 -62.5s62.5 28 62.5 62.5v329.3C349.9 663.4 375 703.7 375 750zm62.5 -165.3c38.9 44 62.5 101.9 62.5 165.3 0 138.1 -111.9 250 -250 250 -.6 0 -1.2 0 -1.8 0C110.9 999 -.7 886 0 748.7c.3 -62.9 23.9 -120.3 62.5 -164V187.5C62.5 83.9 146.4 0 250 0s187.5 83.9 187.5 187.5v397.2zM406.3 750c0 -67.1 -37.9 -101.9 -62.5 -129.9V187.5c0 -51.7 -42.1 -93.7 -93.8 -93.7s-93.7 42 -93.7 93.7v432.6c-24.9 28.2 -62.2 62.7 -62.5 129.1 -.5 85.7 69.4 156.5 155.1 157l1.1 .1c86.2 0 156.3 -70.1 156.3 -156.3z"/></svg>
